dist/assets/img/features/5.svg

<svg width="48" height="38" viewBox="0 0 48 38" fill="none" xmlns="http://www.w3.org/2000/svg">
<path fill-rule="evenodd" clip-rule="evenodd" d="M37.4151 5.90392C31.3829 2.67819 27.7248 0.900027 24 0.900024C20.2752 0.900022 16.617 2.67818 10.5848 5.90392L10.5263 5.93522C7.53005 7.53744 5.21201 8.77702 3.64831 9.82225C2.86117 10.3484 2.20607 10.8632 1.74024 11.3925C1.27148 11.9252 0.919923 12.5586 0.919922 13.3001V28.5001C0.919922 29.0524 1.36764 29.5001 1.91992 29.5001C2.47221 29.5001 2.91992 29.0524 2.91992 28.5001V16.264C3.14724 16.4347 3.3907 16.6057 3.64831 16.7779C4.72128 17.4951 6.14943 18.3038 7.90815 19.2584C7.67947 20.8927 7.67966 23.1562 7.67991 26.2838L7.67992 26.6C7.67992 36.1 10.5488 38 23.9339 38C36.4799 38 40.3199 36.1001 40.3199 26.6C40.3199 23.3146 40.3199 20.9567 40.0729 19.2686C41.8403 18.3096 43.2748 17.4976 44.3515 16.7779C45.1387 16.2517 45.7938 15.7369 46.2596 15.2076C46.7284 14.6749 47.0799 14.0415 47.0799 13.3C47.0799 12.5586 46.7284 11.9252 46.2596 11.3925C45.7938 10.8632 45.1387 10.3484 44.3515 9.82225C42.7878 8.77701 40.4698 7.53742 37.4736 5.93519L37.4735 5.93517L37.4151 5.90392ZM38.1798 20.2871C37.9488 20.4108 37.7133 20.5367 37.4736 20.6649L37.4151 20.6962C31.3829 23.9219 27.7248 25.7001 24 25.7001C20.2752 25.7001 16.617 23.9219 10.5848 20.6962L10.5263 20.6649L10.5263 20.6649C10.2816 20.5341 10.0414 20.4056 9.80584 20.2795C9.67987 21.7213 9.67989 23.6845 9.67992 26.4684V26.4684L9.67992 26.6C9.67992 31.3098 10.4356 33.1816 11.9295 34.2206C12.7686 34.8042 14.0405 35.2727 16.0475 35.5774C18.047 35.8809 20.6155 36 23.9339 36C27.0371 36 29.5099 35.8813 31.4832 35.5779C33.4617 35.2738 34.803 34.8029 35.7328 34.1915C37.3865 33.1041 38.3199 31.1645 38.3199 26.6C38.3199 23.7475 38.3159 21.7468 38.1798 20.2871ZM3.24166 13.8863C2.94905 13.5538 2.91992 13.3729 2.91992 13.3001C2.91992 13.2272 2.94905 13.0463 3.24166 12.7138C3.5372 12.378 4.02416 11.9767 4.75975 11.485C6.23137 10.5013 8.46153 9.30734 11.5279 7.66758C17.6776 4.37901 20.8721 2.90002 24 2.90002C27.1278 2.90003 30.3223 4.37902 36.472 7.66758C39.5383 9.30734 41.7685 10.5013 43.2401 11.485C43.9757 11.9767 44.4626 12.378 44.7582 12.7138C45.0508 13.0463 45.0799 13.2272 45.0799 13.3C45.0799 13.3729 45.0508 13.5538 44.7582 13.8863C44.4626 14.2221 43.9757 14.6234 43.2401 15.1151C41.7685 16.0988 39.5383 17.2928 36.472 18.9325C30.3223 22.2211 27.1278 23.7001 24 23.7001C20.8721 23.7001 17.6776 22.2211 11.5279 18.9325C8.46153 17.2928 6.23137 16.0988 4.75975 15.1151C4.02415 14.6234 3.5372 14.2221 3.24166 13.8863Z" fill="#16171A"/>
</svg>

<svg width="48" height="38" fill="none" xmlns="http://www.w3.org/2000/svg"><path fill-rule="evenodd" clip-rule="evenodd" d="M37.415 5.904C31.383 2.678 27.725.9 24 .9c-3.725 0-7.383 1.778-13.415 5.004l-.059.031C7.53 7.537 5.212 8.777 3.648 9.822c-.787.526-1.442 1.041-1.908 1.57-.469.533-.82 1.167-.82 1.908v15.2a1 1 0 102 0V16.264c.227.17.47.342.728.514 1.073.717 2.501 1.526 4.26 2.48-.229 1.635-.228 3.898-.228 7.026v.316c0 9.5 2.869 11.4 16.254 11.4C36.48 38 40.32 36.1 40.32 26.6c0-3.285 0-5.643-.247-7.331 1.767-.96 3.202-1.771 4.279-2.491.787-.526 1.442-1.041 1.908-1.57.468-.533.82-1.167.82-1.908 0-.741-.352-1.375-.82-1.908-.466-.529-1.121-1.044-1.908-1.57-1.564-1.045-3.882-2.285-6.878-3.887l-.059-.031zm.765 14.383l-.706.378-.059.031C31.383 23.922 27.725 25.7 24 25.7c-3.725 0-7.383-1.778-13.415-5.004l-.059-.031-.72-.386c-.126 1.442-.126 3.405-.126 6.19v.131c0 4.71.756 6.582 2.25 7.62.839.584 2.11 1.053 4.117 1.357 2 .304 4.569.423 7.887.423 3.103 0 5.576-.119 7.55-.422 1.978-.304 3.319-.775 4.249-1.387 1.654-1.087 2.587-3.027 2.587-7.591 0-2.853-.004-4.853-.14-6.313zm-34.938-6.4c-.293-.333-.322-.514-.322-.587 0-.073.03-.254.322-.586.295-.336.782-.737 1.518-1.229 1.471-.984 3.702-2.178 6.768-3.817C17.678 4.379 20.872 2.9 24 2.9s6.322 1.479 12.472 4.768c3.066 1.64 5.297 2.833 6.768 3.817.736.492 1.223.893 1.518 1.229.293.332.322.513.322.586 0 .073-.03.254-.322.586-.295.336-.782.737-1.518 1.23-1.471.983-3.702 2.177-6.768 3.817C30.322 22.22 27.128 23.7 24 23.7s-6.322-1.479-12.472-4.767c-3.066-1.64-5.297-2.834-6.768-3.818-.736-.492-1.223-.893-1.518-1.229z" fill="#16171A"/></svg>
